X:1
T:Céim Ollmhór
L:1/8
M:6/8
K:Cmaj
"C" C2 E GAG |"E7" E^GB "A" ^c2 e|"C#7" B^cB "F#" ^A2 ^F|"Bm" B,DB "E7" e2 d|
"A" ^cea ^g^fe |"C#7" ^e^g^e "F#" ^c3|"Bb7" _Bdf "Eb" _ed_B|[1"Dm" ADE "G7" FGD:|][2"Em7" Bde "A7" ge^c|]
"D" d^fd"G" gdf |"D" ag^f d^cA |"Em" BEB"G" d2 B |"Eb7" _e_d_B A_B_d|
"D" d^fd"G" gdf |"D" d^fa"G" g3|"A7" ag^f e^ce |"Dm/maj7" fd^c d3 ||
"E7" e^ge BdB |"A7" AB^c ege |"D7" ^fcA ^FDF |"G7" D2 G"B7" ^FB^d|
"E7" e^gb agd |"A7" e^cA E3 |"Dm" F2 A def |"G7" dBG FED ||
